X: 36516
T: Sergeant Early's Dream
R: reel
M: 4/4
K: Ddorian
V:1
A2 DE FAcA|GECD EFGE|DA,DE FEFG|Adde fedc|A2 DE FAcA|
GECD EFGE|DA,DE FAcA||1 GFEF DccB:|2 GFEF D2 (3EFG||
|:Add^c d3 e|fg/f/ ed cAGF|ECEG c c2 d|dcdB cdBc|
Add^c d3 e|fg/f/ ed cAGc|AE E2 CE E2||1 CEGE D2 (3EFG:|2 CEGE D4||
V:2
"Dm"D3 C D2 F2|"C"EC A,2 "Am"C2 G,2|"Dm"A,2 AG A4|FE F2 AGFE|D2 FG D2 F2|
"C"E2 C2 "Am"A,2 C2|DFAG AcEF||1 "C"EDCA, "Dm"D2 E2:|2 "C"EDCG, "Dm"A,D D2||
|:"Dm"F3 E F2 G2|"F"A2 GF E2 D2|"C"CG,CE GE G2|"Am"A2 G2 F2 G2|
"Dm"F2 E2 F3/2G/ Ac|"F"d2 cB A2 E2|"Am"D C2 C A, C2 C||1 EGAG "Dm"[A,2F2] (3CDE:|2 A,2 A2 "Dm"[F4d4]||

